svgs/sharp-light/expand-wide.svg

<svg xmlns="http://www.w3.org/2000/svg" viewBox="0 0 512 512"><!--! Font Awesome Pro 6.6.0 by @fontawesome - https://fontawesome.com License - https://fontawesome.com/license (Commercial License) Copyright 2024 Fonticons, Inc. --><path d="M144 64l16 0 0 32-16 0L32 96l0 112 0 16L0 224l0-16L0 80 0 64l16 0 128 0zM0 304l0-16 32 0 0 16 0 112 112 0 16 0 0 32-16 0L16 448 0 448l0-16L0 304zM496 64l16 0 0 16 0 128 0 16-32 0 0-16 0-112L368 96l-16 0 0-32 16 0 128 0zM480 304l0-16 32 0 0 16 0 128 0 16-16 0-128 0-16 0 0-32 16 0 112 0 0-112z"/></svg>

<svg xmlns="http://www.w3.org/2000/svg" viewBox="0 0 512 512"><!--! Font Awesome Pro 6.4.0 by @fontawesome - https://fontawesome.com License - https://fontawesome.com/license (Commercial License) Copyright 2023 Fonticons, Inc. --><path d="M144 64h16V96H144 32V208v16H0V208 80 64H16 144zM0 304V288H32v16V416H144h16v32H144 16 0V432 304zM496 64h16V80 208v16H480V208 96H368 352V64h16H496zM480 304V288h32v16V432v16H496 368 352V416h16H480V304z"/></svg>
